src/cart/components/img/Ok_red.svg

<svg height="50" viewBox="0 0 50 50" width="50" xmlns="http://www.w3.org/2000/svg"><g fill="#ff1744"><path d="m25 45.814c-11.478 0-20.82-9.337-20.82-20.815s9.342-20.819 20.82-20.819c11.479 0 20.815 9.341 20.815 20.819 0 11.479-9.336 20.815-20.815 20.815m0-45.814c-13.787 0-25 11.212-25 24.999 0 13.782 11.213 25 25 25 13.781 0 25-11.218 25-25 0-13.787-11.219-24.999-25-24.999"/><path d="m30.951 23.171c1.87 0 3.391-1.52 3.391-3.396s-1.521-3.396-3.391-3.396c-1.883 0-3.402 1.52-3.402 3.396s1.519 3.396 3.402 3.396"/><path d="m19.049 23.171c1.876 0 3.396-1.52 3.396-3.396s-1.52-3.396-3.396-3.396c-1.87 0-3.396 1.52-3.396 3.396s1.526 3.396 3.396 3.396"/><path d="m32.378 29.444h-14.781c-1.161 0-2.093.932-2.093 2.092 0 1.146.933 2.093 2.093 2.093h14.781c1.161 0 2.093-.946 2.093-2.093 0-1.16-.932-2.092-2.093-2.092"/></g></svg>

<?xml version="1.0" encoding="UTF-8"?>
<svg width="50px" height="50px" viewBox="0 0 50 50" version="1.1" xmlns="http://www.w3.org/2000/svg" xmlns:xlink="http://www.w3.org/1999/xlink">
    <!-- Generator: Sketch 48.2 (47327) - http://www.bohemiancoding.com/sketch -->
    <title>Artboard 2</title>
    <desc>Created with Sketch.</desc>
    <defs></defs>
    <g id="2018011811" stroke="none" stroke-width="1" fill="none" fill-rule="evenodd">
        <g id="Artboard-2" fill="#FF1744" fill-rule="nonzero">
            <path d="M25,45.814 C13.522,45.814 4.18,36.477 4.18,24.999 C4.18,13.521 13.522,4.18 25,4.18 C36.479,4.18 45.815,13.521 45.815,24.999 C45.815,36.478 36.479,45.814 25,45.814 M25,0 C11.213,0 0,11.212 0,24.999 C0,38.781 11.213,49.999 25,49.999 C38.781,49.999 50,38.781 50,24.999 C50,11.212 38.781,0 25,0" id="Fill-1"></path>
            <path d="M30.951,23.171 C32.821,23.171 34.342,21.651 34.342,19.775 C34.342,17.899 32.821,16.379 30.951,16.379 C29.068,16.379 27.549,17.899 27.549,19.775 C27.549,21.651 29.068,23.171 30.951,23.171" id="Fill-3"></path>
            <path d="M19.049,23.171 C20.925,23.171 22.445,21.651 22.445,19.775 C22.445,17.899 20.925,16.379 19.049,16.379 C17.179,16.379 15.653,17.899 15.653,19.775 C15.653,21.651 17.179,23.171 19.049,23.171" id="Fill-5"></path>
            <path d="M32.378,29.444 L17.597,29.444 C16.436,29.444 15.504,30.376 15.504,31.536 C15.504,32.682 16.437,33.629 17.597,33.629 L32.378,33.629 C33.539,33.629 34.471,32.683 34.471,31.536 C34.471,30.376 33.539,29.444 32.378,29.444" id="Fill-7"></path>
        </g>
    </g>
</svg>
